images/11949166.svg

<?xml version="1.0" encoding="UTF-8"?>
<svg xmlns="http://www.w3.org/2000/svg" xmlns:xlink="http://www.w3.org/1999/xlink" width="300pt" height="300pt" viewBox="0 0 300 300" version="1.1">
<defs>
<g>
<symbol overflow="visible" id="glyph0-0">
<path style="stroke:none;" d="M 0.546875 1.9375 L 0.546875 -7.75 L 6.046875 -7.75 L 6.046875 1.9375 Z M 1.171875 1.328125 L 5.4375 1.328125 L 5.4375 -7.140625 L 1.171875 -7.140625 Z M 1.171875 1.328125 "/>
</symbol>
<symbol overflow="visible" id="glyph0-1">
<path style="stroke:none;" d="M 1.078125 -8.015625 L 2.546875 -8.015625 L 6.09375 -1.3125 L 6.09375 -8.015625 L 7.15625 -8.015625 L 7.15625 0 L 5.6875 0 L 2.125 -6.703125 L 2.125 0 L 1.078125 0 Z M 1.078125 -8.015625 "/>
</symbol>
</g>
</defs>
<g id="surface36121">
<rect x="0" y="0" width="300" height="300" style="fill:rgb(100%,100%,100%);fill-opacity:1;stroke:none;"/>
<path style="fill:none;stroke-width:1;stroke-linecap:butt;stroke-linejoin:miter;stroke:rgb(0%,0%,0%);stroke-opacity:1;stroke-miterlimit:10;" d="M 152.246094 153.925781 L 152.246094 153.925781 M 154.34375 156.070312 L 154.953125 155.222656 M 156.445312 158.214844 L 157.65625 156.519531 M 158.542969 160.355469 L 160.363281 157.8125 M 160.640625 162.5 L 163.070312 159.109375 M 162.738281 164.644531 L 165.773438 160.40625 M 164.839844 166.789062 L 168.480469 161.703125 M 166.9375 168.933594 L 171.1875 162.996094 M 169.035156 171.074219 L 173.890625 164.292969 M 171.132812 173.21875 L 176.597656 165.589844 M 172.460938 174.574219 L 178.304688 166.40625 "/>
<path style="fill:none;stroke-width:1.2;stroke-linecap:butt;stroke-linejoin:miter;stroke:rgb(0%,0%,100%);stroke-opacity:1;stroke-miterlimit:10;" d="M 198.285156 153.605469 L 186.832031 162.046875 "/>
<path style="fill:none;stroke-width:1.2;stroke-linecap:butt;stroke-linejoin:miter;stroke:rgb(0%,0%,0%);stroke-opacity:1;stroke-miterlimit:10;" d="M 186.832031 162.046875 L 175.382812 170.488281 "/>
<path style="fill:none;stroke-width:1.2;stroke-linecap:butt;stroke-linejoin:miter;stroke:rgb(0%,0%,0%);stroke-opacity:1;stroke-miterlimit:10;" d="M 152.246094 153.925781 L 123.792969 154.125 "/>
<path style="fill:none;stroke-width:1.2;stroke-linecap:butt;stroke-linejoin:miter;stroke:rgb(0%,0%,0%);stroke-opacity:1;stroke-miterlimit:10;" d="M 160.851562 126.804688 L 152.246094 153.925781 "/>
<path style="fill:none;stroke-width:1.2;stroke-linecap:butt;stroke-linejoin:miter;stroke:rgb(0%,0%,0%);stroke-opacity:1;stroke-miterlimit:10;" d="M 123.792969 154.125 L 120.609375 127.085938 "/>
<path style="fill:none;stroke-width:1.2;stroke-linecap:butt;stroke-linejoin:miter;stroke:rgb(0%,0%,0%);stroke-opacity:1;stroke-miterlimit:10;" d="M 123.792969 154.125 L 107.230469 177.261719 "/>
<path style="fill:none;stroke-width:1.2;stroke-linecap:butt;stroke-linejoin:miter;stroke:rgb(0%,0%,0%);stroke-opacity:1;stroke-miterlimit:10;" d="M 120.609375 127.085938 L 140.871094 147.0625 "/>
<path style="fill:none;stroke-width:1.2;stroke-linecap:butt;stroke-linejoin:miter;stroke:rgb(0%,0%,0%);stroke-opacity:1;stroke-miterlimit:10;" d="M 120.609375 127.085938 L 92.15625 127.285156 "/>
<path style="fill:none;stroke-width:1.2;stroke-linecap:butt;stroke-linejoin:miter;stroke:rgb(0%,0%,0%);stroke-opacity:1;stroke-miterlimit:10;" d="M 140.589844 106.824219 L 120.609375 127.085938 "/>
<path style="fill:none;stroke-width:1.2;stroke-linecap:butt;stroke-linejoin:miter;stroke:rgb(0%,0%,0%);stroke-opacity:1;stroke-miterlimit:10;" d="M 140.871094 147.0625 L 160.851562 126.804688 "/>
<path style="fill:none;stroke-width:1.2;stroke-linecap:butt;stroke-linejoin:miter;stroke:rgb(0%,0%,0%);stroke-opacity:1;stroke-miterlimit:10;" d="M 160.851562 126.804688 L 140.589844 106.824219 "/>
<path style="fill:none;stroke-width:1.2;stroke-linecap:butt;stroke-linejoin:miter;stroke:rgb(0%,0%,0%);stroke-opacity:1;stroke-miterlimit:10;" d="M 160.851562 126.804688 L 189.304688 126.605469 "/>
<path style="fill:none;stroke-width:1.2;stroke-linecap:butt;stroke-linejoin:miter;stroke:rgb(0%,0%,0%);stroke-opacity:1;stroke-miterlimit:10;" d="M 189.304688 126.605469 L 193.792969 140.105469 "/>
<path style="fill:none;stroke-width:1.2;stroke-linecap:butt;stroke-linejoin:miter;stroke:rgb(0%,0%,100%);stroke-opacity:1;stroke-miterlimit:10;" d="M 193.792969 140.105469 L 198.285156 153.605469 "/>
<path style=" stroke:none;fill-rule:nonzero;fill:rgb(0%,0%,0%);fill-opacity:1;" d="M 189.304688 126.605469 L 209.949219 106.390625 L 201.785156 100.546875 Z M 189.304688 126.605469 "/>
<path style="fill:none;stroke-width:1.2;stroke-linecap:butt;stroke-linejoin:miter;stroke:rgb(0%,0%,100%);stroke-opacity:1;stroke-miterlimit:10;" d="M 198.285156 153.605469 L 211.847656 157.90625 "/>
<path style="fill:none;stroke-width:1.2;stroke-linecap:butt;stroke-linejoin:miter;stroke:rgb(0%,0%,0%);stroke-opacity:1;stroke-miterlimit:10;" d="M 211.847656 157.90625 L 225.40625 162.207031 "/>
<path style=" stroke:none;fill-rule:nonzero;fill:rgb(100%,100%,100%);fill-opacity:1;" d="M 194.285156 147.105469 L 202.285156 147.105469 L 202.285156 160.105469 L 194.285156 160.105469 Z M 194.285156 147.105469 "/>
<g style="fill:rgb(0%,0%,100%);fill-opacity:1;">
  <use xlink:href="#glyph0-1" x="194.285156" y="157.006836"/>
</g>
<path style="fill:none;stroke-width:1.2;stroke-linecap:butt;stroke-linejoin:miter;stroke:rgb(0%,0%,0%);stroke-opacity:1;stroke-miterlimit:10;" d="M 225.40625 162.207031 L 231.515625 190 "/>
<path style="fill:none;stroke-width:1.2;stroke-linecap:butt;stroke-linejoin:miter;stroke:rgb(0%,0%,0%);stroke-opacity:1;stroke-miterlimit:10;" d="M 231.515625 190 L 210.503906 209.1875 "/>
<path style="fill:none;stroke-width:1.2;stroke-linecap:butt;stroke-linejoin:miter;stroke:rgb(0%,0%,0%);stroke-opacity:1;stroke-miterlimit:10;" d="M 233.929688 196.863281 L 217.121094 212.210938 "/>
<path style="fill:none;stroke-width:1.2;stroke-linecap:butt;stroke-linejoin:miter;stroke:rgb(0%,0%,0%);stroke-opacity:1;stroke-miterlimit:10;" d="M 258.640625 198.601562 L 231.515625 190 "/>
<path style="fill:none;stroke-width:1.2;stroke-linecap:butt;stroke-linejoin:miter;stroke:rgb(0%,0%,0%);stroke-opacity:1;stroke-miterlimit:10;" d="M 210.503906 209.1875 L 213.558594 223.082031 "/>
<path style="fill:none;stroke-width:1.2;stroke-linecap:butt;stroke-linejoin:miter;stroke:rgb(0%,0%,100%);stroke-opacity:1;stroke-miterlimit:10;" d="M 213.558594 223.082031 L 216.617188 236.976562 "/>
<path style="fill:none;stroke-width:1.2;stroke-linecap:butt;stroke-linejoin:miter;stroke:rgb(0%,0%,100%);stroke-opacity:1;stroke-miterlimit:10;" d="M 216.617188 236.976562 L 230.175781 241.277344 "/>
<path style="fill:none;stroke-width:1.2;stroke-linecap:butt;stroke-linejoin:miter;stroke:rgb(0%,0%,0%);stroke-opacity:1;stroke-miterlimit:10;" d="M 230.175781 241.277344 L 243.738281 245.578125 "/>
<path style="fill:none;stroke-width:1.2;stroke-linecap:butt;stroke-linejoin:miter;stroke:rgb(0%,0%,100%);stroke-opacity:1;stroke-miterlimit:10;" d="M 221.351562 231.453125 L 232.199219 234.894531 "/>
<path style="fill:none;stroke-width:1.2;stroke-linecap:butt;stroke-linejoin:miter;stroke:rgb(0%,0%,0%);stroke-opacity:1;stroke-miterlimit:10;" d="M 232.199219 234.894531 L 243.050781 238.335938 "/>
<path style=" stroke:none;fill-rule:nonzero;fill:rgb(100%,100%,100%);fill-opacity:1;" d="M 212.617188 230.476562 L 220.617188 230.476562 L 220.617188 243.476562 L 212.617188 243.476562 Z M 212.617188 230.476562 "/>
<g style="fill:rgb(0%,0%,100%);fill-opacity:1;">
  <use xlink:href="#glyph0-1" x="212.617188" y="240.37793"/>
</g>
<path style="fill:none;stroke-width:1.2;stroke-linecap:butt;stroke-linejoin:miter;stroke:rgb(0%,0%,0%);stroke-opacity:1;stroke-miterlimit:10;" d="M 243.738281 245.578125 L 264.75 226.394531 "/>
<path style="fill:none;stroke-width:1.2;stroke-linecap:butt;stroke-linejoin:miter;stroke:rgb(0%,0%,0%);stroke-opacity:1;stroke-miterlimit:10;" d="M 264.75 226.394531 L 258.640625 198.601562 "/>
<path style="fill:none;stroke-width:1.2;stroke-linecap:butt;stroke-linejoin:miter;stroke:rgb(0%,0%,0%);stroke-opacity:1;stroke-miterlimit:10;" d="M 257.601562 225.050781 L 252.710938 202.820312 "/>
<path style="fill:none;stroke-width:1.2;stroke-linecap:butt;stroke-linejoin:miter;stroke:rgb(0%,0%,0%);stroke-opacity:1;stroke-miterlimit:10;" d="M 205.867188 103.46875 L 234.1875 106.246094 "/>
<path style="fill:none;stroke-width:1.2;stroke-linecap:butt;stroke-linejoin:miter;stroke:rgb(0%,0%,0%);stroke-opacity:1;stroke-miterlimit:10;" d="M 209.351562 97.082031 L 232.007812 99.304688 "/>
<path style="fill:none;stroke-width:1.2;stroke-linecap:butt;stroke-linejoin:miter;stroke:rgb(0%,0%,0%);stroke-opacity:1;stroke-miterlimit:10;" d="M 194.113281 77.554688 L 205.867188 103.46875 "/>
<path style="fill:none;stroke-width:1.2;stroke-linecap:butt;stroke-linejoin:miter;stroke:rgb(0%,0%,0%);stroke-opacity:1;stroke-miterlimit:10;" d="M 234.1875 106.246094 L 250.75 83.109375 "/>
<path style="fill:none;stroke-width:1.2;stroke-linecap:butt;stroke-linejoin:miter;stroke:rgb(0%,0%,0%);stroke-opacity:1;stroke-miterlimit:10;" d="M 250.75 83.109375 L 238.996094 57.195312 "/>
<path style="fill:none;stroke-width:1.2;stroke-linecap:butt;stroke-linejoin:miter;stroke:rgb(0%,0%,0%);stroke-opacity:1;stroke-miterlimit:10;" d="M 243.476562 83.285156 L 234.074219 62.554688 "/>
<path style="fill:none;stroke-width:1.2;stroke-linecap:butt;stroke-linejoin:miter;stroke:rgb(0%,0%,0%);stroke-opacity:1;stroke-miterlimit:10;" d="M 238.996094 57.195312 L 210.675781 54.421875 "/>
<path style="fill:none;stroke-width:1.2;stroke-linecap:butt;stroke-linejoin:miter;stroke:rgb(0%,0%,0%);stroke-opacity:1;stroke-miterlimit:10;" d="M 210.675781 54.421875 L 194.113281 77.554688 "/>
<path style="fill:none;stroke-width:1.2;stroke-linecap:butt;stroke-linejoin:miter;stroke:rgb(0%,0%,0%);stroke-opacity:1;stroke-miterlimit:10;" d="M 214.464844 60.632812 L 201.214844 79.140625 "/>
<path style="fill:none;stroke-width:1.2;stroke-linecap:butt;stroke-linejoin:miter;stroke:rgb(0%,0%,0%);stroke-opacity:1;stroke-miterlimit:10;" d="M 92.15625 127.285156 L 77.757812 102.742188 "/>
<path style="fill:none;stroke-width:1.2;stroke-linecap:butt;stroke-linejoin:miter;stroke:rgb(0%,0%,0%);stroke-opacity:1;stroke-miterlimit:10;" d="M 84.941406 128.21875 L 73.421875 108.582031 "/>
<path style="fill:none;stroke-width:1.2;stroke-linecap:butt;stroke-linejoin:miter;stroke:rgb(0%,0%,0%);stroke-opacity:1;stroke-miterlimit:10;" d="M 78.101562 152.023438 L 92.15625 127.285156 "/>
<path style="fill:none;stroke-width:1.2;stroke-linecap:butt;stroke-linejoin:miter;stroke:rgb(0%,0%,0%);stroke-opacity:1;stroke-miterlimit:10;" d="M 77.757812 102.742188 L 49.304688 102.941406 "/>
<path style="fill:none;stroke-width:1.2;stroke-linecap:butt;stroke-linejoin:miter;stroke:rgb(0%,0%,0%);stroke-opacity:1;stroke-miterlimit:10;" d="M 49.304688 102.941406 L 35.25 127.679688 "/>
<path style="fill:none;stroke-width:1.2;stroke-linecap:butt;stroke-linejoin:miter;stroke:rgb(0%,0%,0%);stroke-opacity:1;stroke-miterlimit:10;" d="M 53.71875 108.722656 L 42.476562 128.515625 "/>
<path style="fill:none;stroke-width:1.2;stroke-linecap:butt;stroke-linejoin:miter;stroke:rgb(0%,0%,0%);stroke-opacity:1;stroke-miterlimit:10;" d="M 35.25 127.679688 L 49.648438 152.222656 "/>
<path style="fill:none;stroke-width:1.2;stroke-linecap:butt;stroke-linejoin:miter;stroke:rgb(0%,0%,0%);stroke-opacity:1;stroke-miterlimit:10;" d="M 49.648438 152.222656 L 78.101562 152.023438 "/>
<path style="fill:none;stroke-width:1.2;stroke-linecap:butt;stroke-linejoin:miter;stroke:rgb(0%,0%,0%);stroke-opacity:1;stroke-miterlimit:10;" d="M 52.449219 145.507812 L 75.210938 145.347656 "/>
<path style="fill:none;stroke-width:1.2;stroke-linecap:butt;stroke-linejoin:miter;stroke:rgb(0%,0%,0%);stroke-opacity:1;stroke-miterlimit:10;" d="M 107.230469 177.261719 L 78.910156 174.484375 "/>
<path style="fill:none;stroke-width:1.2;stroke-linecap:butt;stroke-linejoin:miter;stroke:rgb(0%,0%,0%);stroke-opacity:1;stroke-miterlimit:10;" d="M 103.742188 183.648438 L 81.089844 181.425781 "/>
<path style="fill:none;stroke-width:1.2;stroke-linecap:butt;stroke-linejoin:miter;stroke:rgb(0%,0%,0%);stroke-opacity:1;stroke-miterlimit:10;" d="M 118.984375 203.171875 L 107.230469 177.261719 "/>
<path style="fill:none;stroke-width:1.2;stroke-linecap:butt;stroke-linejoin:miter;stroke:rgb(0%,0%,0%);stroke-opacity:1;stroke-miterlimit:10;" d="M 78.910156 174.484375 L 62.347656 197.621094 "/>
<path style="fill:none;stroke-width:1.2;stroke-linecap:butt;stroke-linejoin:miter;stroke:rgb(0%,0%,0%);stroke-opacity:1;stroke-miterlimit:10;" d="M 62.347656 197.621094 L 74.101562 223.535156 "/>
<path style="fill:none;stroke-width:1.2;stroke-linecap:butt;stroke-linejoin:miter;stroke:rgb(0%,0%,0%);stroke-opacity:1;stroke-miterlimit:10;" d="M 69.621094 197.445312 L 79.023438 218.175781 "/>
<path style="fill:none;stroke-width:1.2;stroke-linecap:butt;stroke-linejoin:miter;stroke:rgb(0%,0%,0%);stroke-opacity:1;stroke-miterlimit:10;" d="M 74.101562 223.535156 L 102.417969 226.308594 "/>
<path style="fill:none;stroke-width:1.2;stroke-linecap:butt;stroke-linejoin:miter;stroke:rgb(0%,0%,0%);stroke-opacity:1;stroke-miterlimit:10;" d="M 102.417969 226.308594 L 118.984375 203.171875 "/>
<path style="fill:none;stroke-width:1.2;stroke-linecap:butt;stroke-linejoin:miter;stroke:rgb(0%,0%,0%);stroke-opacity:1;stroke-miterlimit:10;" d="M 98.632812 220.097656 L 111.882812 201.589844 "/>
</g>
</svg>

<svg xmlns="http://www.w3.org/2000/svg" xmlns:xlink="http://www.w3.org/1999/xlink" width="300pt" height="300pt" viewBox="0 0 300 300"><defs><symbol overflow="visible"><path d="M.547 1.938V-7.75h5.5v9.688zm.625-.61h4.266v-8.47H1.171zm0 0"/></symbol><symbol overflow="visible" id="a"><path d="M1.078-8.016h1.47l3.546 6.704v-6.704h1.062V0H5.688L2.124-6.703V0H1.078zm0 0"/></symbol></defs><g><path fill="#fff" d="M0 0h300v300H0z"/><path d="M152.246 153.926m2.098 2.144l.61-.847m1.49 2.992l1.212-1.695m.887 3.835l1.82-2.542m.278 4.687l2.43-3.39m-.332 5.535l3.035-4.24m-.933 6.384l3.64-5.087m-1.542 7.23l4.25-5.937m-2.153 8.078l4.856-6.78m-2.757 8.925l5.465-7.63m-4.137 8.984l5.845-8.168" stroke="#000" stroke-miterlimit="10" fill="none"/><path d="M198.285 153.605l-11.453 8.442" stroke-width="1.2" stroke="#00f" stroke-miterlimit="10" fill="none"/><path d="M186.832 162.047l-11.45 8.44M152.246 153.926l-28.453.2M160.852 126.805l-8.606 27.12M123.793 154.125l-3.184-27.04M123.793 154.125l-16.563 23.137M120.61 127.086l20.26 19.977M120.61 127.086l-28.454.2M140.59 106.824l-19.98 20.262M140.87 147.063l19.982-20.258M160.852 126.805l-20.262-19.98M160.852 126.805l28.453-.2M189.305 126.605l4.488 13.5" stroke-width="1.2" stroke="#000" stroke-miterlimit="10" fill="none"/><path d="M193.793 140.105l4.492 13.5" stroke-width="1.2" stroke="#00f" stroke-miterlimit="10" fill="none"/><path d="M189.305 126.605l20.644-20.214-8.165-5.843zm0 0"/><path d="M198.285 153.605l13.563 4.3" stroke-width="1.2" stroke="#00f" stroke-miterlimit="10" fill="none"/><path d="M211.848 157.906l13.558 4.3" stroke-width="1.2" stroke="#000" stroke-miterlimit="10" fill="none"/><path d="M194.285 147.105h8v13h-8zm0 0" fill="#fff"/><use xlink:href="#a" x="194.285" y="157.007" fill="#00f"/><path d="M225.406 162.207l6.11 27.793M231.516 190l-21.012 19.188M233.93 196.863l-16.81 15.348M258.64 198.602L231.517 190M210.504 209.188l3.055 13.894" stroke-width="1.2" stroke="#000" stroke-miterlimit="10" fill="none"/><path d="M213.56 223.082l3.057 13.895M216.617 236.977l13.56 4.3" stroke-width="1.2" stroke="#00f" stroke-miterlimit="10" fill="none"/><path d="M230.176 241.277l13.562 4.3" stroke-width="1.2" stroke="#000" stroke-miterlimit="10" fill="none"/><path d="M221.352 231.453l10.847 3.442" stroke-width="1.2" stroke="#00f" stroke-miterlimit="10" fill="none"/><path d="M232.2 234.895l10.85 3.44" stroke-width="1.2" stroke="#000" stroke-miterlimit="10" fill="none"/><path d="M212.617 230.477h8v13h-8zm0 0" fill="#fff"/><use xlink:href="#a" x="212.617" y="240.378" fill="#00f"/><path d="M243.738 245.578l21.012-19.183M264.75 226.395l-6.11-27.793M257.602 225.05l-4.89-22.23M205.867 103.47l28.32 2.776M209.352 97.082l22.656 2.223M194.113 77.555l11.754 25.914M234.188 106.246L250.75 83.11M250.75 83.11l-11.754-25.915M243.477 83.285l-9.403-20.73M238.996 57.195l-28.32-2.773M210.676 54.422l-16.563 23.133M214.465 60.633l-13.25 18.508M92.156 127.285l-14.398-24.543M84.94 128.22L73.423 108.58M78.102 152.023l14.054-24.738M77.758 102.742l-28.453.2M49.305 102.94L35.25 127.68M53.72 108.723l-11.243 19.793M35.25 127.68l14.398 24.543M49.648 152.223l28.454-.2M52.45 145.508l22.76-.16M107.23 177.262l-28.32-2.778M103.742 183.648l-22.652-2.222M118.984 203.172l-11.754-25.91M78.91 174.484L62.348 197.62M62.348 197.62l11.754 25.915M69.62 197.445l9.403 20.73M74.102 223.535l28.316 2.774M102.418 226.31l16.566-23.138M98.633 220.098l13.25-18.508" stroke-width="1.2" stroke="#000" stroke-miterlimit="10" fill="none"/></g></svg>
